src/icons/windows.svg

<svg width="26" height="26" viewBox="-1 -1 28 28" fill="none" xmlns="http://www.w3.org/2000/svg">
<path d="M1 4.449L10.75 3.1V12.551H1V4.449ZM11.949 2.949L25 1V12.4H11.949V2.949ZM1 13.6H10.75V23.051L1 21.699V13.6Z"/>
<path d="M12 13.6016L25 13.6016V25L12 23.2125V13.6016Z"/>
</svg>

<svg fill="none" height="26" viewBox="-1 -1 28 28" width="26" xmlns="http://www.w3.org/2000/svg"><path d="m1 4.449 9.75-1.349v9.451h-9.75zm10.949-1.5 13.051-1.949v11.4h-13.051zm-10.949 10.651h9.75v9.451l-9.75-1.352z"/><path d="m12 13.6016h13v11.3984l-13-1.7875z"/></svg>
